X: 2220
T: The CUP OF TAY
Q: "Irish Reel."
R: Reel.
%R: reel
N: This is version 1, for ABC software that doesn't understand voice overlays.
B: James Kerr "Merry Melodies" v.2 p.25 #220
Z: 2016 John Chambers <jc:trillian.mit.edu>
M: C
L: 1/8
K: Ador
|:\
veA (3AAA g2fg | eAAc (BG)G2 |\
 eA (3AAA g2fg |[1 afge dgfg :|[2 afge d2 ||
|: (^cd) |\
eaag efgf | eaag edcd |\
eaag efgb |[1 afge d2 :|[2 afge dgfg |]

%%sep 1 1 500
%%sep 1 1 500

